X:1
T:Title
%%score { ( 1 3 ) | ( 2 4 ) }
L:1/8
M:4/4
K:Ab
V:1 treble nm="Grand Piano"
V:3 treble 
V:2 bass 
V:4 bass 
V:1
 z4 z2[Q:1/4=100] [A,C]>[B,D] | [CE]2 [DF]2 [CE]2 [A,C]>[B,D] | [CE]2 c2 c2 G>A | B2 =A2 B2 E2 | %4
[M:3/4] [Ec]6 |[M:1/4] [CA]>[DB] |[M:4/4] [Ec]2 [Ee]2 [Ee]2 [EA]>B | c2 d2 c2 [Ec]>[Ec] | %8
 [EB]2 [EG]>[FA] [EG]2 [=DF]2 |[M:3/4] E6 |[M:1/4] E>E |[M:4/4] d2 d2 d2 E>E | [Ec]2 c2 c2 c>d | %13
 z4 z2 c2 |[M:3/4] B6 |[M:1/4] [EAc]>[EAc] |[M:4/4] [EBd]2 [EAc]2 [EGB]2 E>[G,DE] | %17
[M:39/32] [A,CA]/4-[A,CA]/4-[A,CA]/4-[A,CA]/4-[A,CA]/-<[A,CA]/[Ec]/4-[Ec]/4-[Ec]/4-[Ec]/4-[Ec]/-<[Ec]/[Ae]/4-[Ae]/4-[Ae]/4-[Ae]/4-[Ae]/4-[Ae]/4-[Ae]/4-[Ae]/4-[Ae]/-<[Ae]/[Af]/4-[Af]/4-[Af]/4-[Af]/4-[Af]/-<[Af]/[Af]3/4 | %18
[M:4/4] e2- e/4 z/4 z/ z z4 |[M:3/4] [CA]6 |] %20
V:2
 z4 z2 [A,,E,]>[A,,E,] | [A,,A,]2 [A,,A,]2 [A,,A,]2 [A,,E,]>[A,,E,] | %2
 [A,,A,]2 [A,CE]2 [A,CE]2 [E,B,D]>[E,A,C] | [E,G,D]2 [E,_G,C]2 [E,=G,D]2 [E,G,D]2 | %4
[M:3/4] [A,,A,]6 |[M:1/4] [A,,E,]>[A,,E,] |[M:4/4] [A,,A,]2 [A,,C]2 [A,,C]2 [C,A,]>[E,G,E] | %7
 [A,E]2 [A,F]2[K:bass] [A,E]2 [A,,A,]>[A,,A,] | [B,,G,]2 [B,,B,]>[B,,B,] [B,,B,]2 [B,,A,]2 | %9
[M:3/4] E,2- [E,A,]2 B,2 |[M:1/4] [E,G,D]>[E,G,D] | %11
[M:4/4] [E,G,E]2 [F,A,E]2 [G,B,E]2 [E,G,D]>[E,G,D] | [A,,A,]2 [A,E]2 [A,E]2 [C,C]>[D,D] | %13
 z4 z2 A,2 |[M:3/4] E,2- [E,-E]2 [E,E]2 |[M:1/4] A,>A, |[M:4/4] G,2 A,2 E,>D, C,>E, | %17
[M:39/32] A,,/4-A,,/4-A,,/4-A,,/4-A,,/-<A,,/A,/4-A,/4-A,/4-A,/4-A,/-<A,/[A,C]/4-[A,C]/4-[A,C]/4-[A,C]/4-[A,C]/4-[A,C]/4-[A,C]/4-[A,C]/4-[A,C]/-<[A,C]/[D,D]/4-[D,D]/4-[D,D]/4-[D,D]/4-[D,D]/-<[D,D]/[D,D]3/4 | %18
[M:4/4] C2- C/4 z/4 z/ z z4 |[M:3/4] [A,,A,]6 |] %20
V:3
 x8 | x8 | x8 | x8 |[M:3/4] x6 |[M:1/4] x2 |[M:4/4] x8 | x8 | x8 |[M:3/4] z2 C2 D2 |[M:1/4] x2 | %11
[M:4/4] x8 | x8 | e2 c>A E2 E>E |[M:3/4] z z/ B,/ F2 G2 |[M:1/4] x2 |[M:4/4] x8 |[M:39/32] x39/4 | %18
[M:4/4] (7:8:5A3/2c3/2.d/ c3/2 B2 |[M:3/4] x6 |] %20
V:4
 x8 | x8 | x8 | x8 |[M:3/4] x6 |[M:1/4] x2 |[M:4/4] x8 | x4[K:bass] x4 | x8 |[M:3/4] G,2 z2 z2 | %10
[M:1/4] x2 |[M:4/4] x8 | x8 | [E,E]2 C>A, E,2 A,,->[A,,A,] |[M:3/4] [G,E]2 z2 z2 |[M:1/4] x2 | %16
[M:4/4] x8 |[M:39/32] x39/4 |[M:4/4] (7:8:5E,3/2[E,A,E]3/2.[E,B,E]/ [E,A,E]3/2 [E,G,D]2 | %19
[M:3/4] x6 |] %20

